resources/svg/volume-2-o.svg

<svg xmlns="http://www.w3.org/2000/svg" viewBox="0 0 15 15" fill="none"><path d="M3.5 10.4941L3.75712 10.0653L3.63841 9.99413H3.5V10.4941ZM3.5 4.49804V4.99804H3.63841L3.75712 4.92686L3.5 4.49804ZM8.5 1.5H9C9 1.31989 8.90313 1.1537 8.74641 1.06494C8.58969 0.976173 8.39735 0.978558 8.24288 1.07118L8.5 1.5ZM8.5 13.4922L8.24288 13.921C8.39735 14.0136 8.58969 14.016 8.74641 13.9272C8.90313 13.8385 9 13.6723 9 13.4922H8.5ZM3.5 9.99413H1.5V10.9941H3.5V9.99413ZM1.5 9.99413C1.22351 9.99413 1 9.77065 1 9.49478H0C0 10.3242 0.672491 10.9941 1.5 10.9941V9.99413ZM1 9.49478V5.49739H0V9.49478H1ZM1 5.49739C1 5.22153 1.22351 4.99804 1.5 4.99804V3.99804C0.672491 3.99804 0 4.66798 0 5.49739H1ZM1.5 4.99804H3.5V3.99804H1.5V4.99804ZM3.75712 4.92686L8.75712 1.92882L8.24288 1.07118L3.24288 4.06922L3.75712 4.92686ZM8 1.5V13.4922H9V1.5H8ZM8.75712 13.0634L3.75712 10.0653L3.24288 10.923L8.24288 13.921L8.75712 13.0634ZM10 6V9H11V6H10ZM12 4V11H13V4H12Z" fill="black"/></svg>

<svg xmlns="http://www.w3.org/2000/svg" viewBox="0 0 15 15" fill="none"><path d="M3.5 10.494l.257-.429-.119-.07H3.5v.5zm0-5.996v.5h.138l.12-.071-.258-.429zm5-2.998H9a.5.5 0 00-.757-.429L8.5 1.5zm0 11.992l-.257.429A.5.5 0 009 13.492h-.5zm-5-3.498h-2v1h2v-1zm-2 0a.5.5 0 01-.5-.5H0c0 .83.672 1.5 1.5 1.5v-1zm-.5-.5V5.498H0v3.998h1zm0-3.997a.5.5 0 01.5-.499v-1a1.5 1.5 0 00-1.5 1.5h1zm.5-.499h2v-1h-2v1zm2.257-.071l5-2.998-.514-.858-5 2.998.514.858zM8 1.5v11.992h1V1.5H8zm.757 11.563l-5-2.998-.514.858 5 2.998.514-.858zM10 6v3h1V6h-1zm2-2v7h1V4h-1z" fill="currentColor"/></svg>
